assets/stickers/emoticons/stickers/imgly_sticker_emoticons_kisses.svg

<svg height="58" viewBox="0 0 62 58" width="62" xmlns="http://www.w3.org/2000/svg"><g fill="none"><path d="m60.9 34.5c0 13-11.9 23.5-30.3 23.5s-30.3-10.5-30.3-23.5 11.9-32.5 30.3-32.5 30.3 19.5 30.3 32.5z" fill="#f7910b"/><path d="m60.9 34.5c0 13-11.9 19.5-30.3 19.5s-30.3-6.5-30.3-19.5 11.9-34.5 30.3-34.5 30.3 21.5 30.3 34.5z" fill="#f7910b"/><path d="m30.6 0c18.4 0 30.3 21.5 30.3 34.5s-11.9 19.5-30.3 19.5" fill="#f9a908"/><path d="m60.9 34.5c0 13-11.9 19.5-30.3 19.5s-30.3-6.5-30.3-19.5 11.9-32.5 30.3-32.5 30.3 19.5 30.3 32.5z" fill="#f9a908"/><path d="m.3 34.5c0-13 11.9-32.5 30.3-32.5" fill="#f9c55d"/><path d="m30.6 2c18.4 0 30.3 19.5 30.3 32.5s-11.9 23.5-30.3 23.5" fill="#f7910b"/><path d="m30.6 2c18.4 0 30.3 19.5 30.3 32.5" fill="#ea7103"/><g transform="translate(18 10)"><path d="m5.4 5.1c-.6.7-1.4-.6-2.8-1.8s-2.8-1.8-2.2-2.4c.6-.7 2.1-.3 3.5.9 1.4 1.1 2.1 2.6 1.5 3.3z" fill="#19bca4"/><path d="m5.4 5.1c-.6.7-1.4-.6-2.8-1.8s-2.8-1.8-2.2-2.4" fill="#109da0"/></g><g transform="translate(36 11)"><path d="m.7 2.9c.2.8 1.5.1 3.3-.4 1.8-.4 3.3-.4 3.1-1.2s-1.8-1.2-3.6-.7c-1.8.4-3 1.4-2.8 2.3z" fill="#19bca4"/><path d="m.7 2.9c.2.8 1.5.1 3.3-.4 1.8-.4 3.3-.4 3.1-1.2" fill="#109da0"/></g><circle cx="8.9" cy="31.5" fill="#f7910b" r="1"/><circle cx="4.4" cy="33.5" fill="#f7910b" r="1.1"/><circle cx="7.4" cy="29.5" fill="#f7910b" r="1"/><circle cx="12" cy="31.3" fill="#f7910b" r="1"/><g fill="#f9a908"><circle cx="51.2" cy="31.8" r="1"/><circle cx="53.7" cy="33.2" r="1"/><circle cx="48.4" cy="24.4" r="1"/><circle cx="47.9" cy="36" r="1.3"/><circle cx="55.1" cy="36.1" r="1"/></g><circle cx="7.9" cy="35.5" fill="#f7910b" r="1"/><circle cx="8.7" cy="27.1" fill="#f7910b" r="1"/><circle cx="3.4" cy="13.3" fill="#f9a908" r="1.1"/><circle cx="6.6" cy="9.8" fill="#f9a908" r="1"/><circle cx="57.8" cy="15.7" fill="#f9a908" r="1"/><g transform="translate(13 19)"><path d="m9.5 6c-.4-.1-.8-.3-1.1-.7-1.1-1.6-3.4-2-5-.9-.8.5-1.8.3-2.3-.4s-.3-1.8.4-2.3c3.1-2.2 7.4-1.4 9.6 1.8.5.7.3 1.8-.4 2.3-.4.2-.8.2-1.2.2z" fill="#1e4784"/><path d="m11.1 3.4c.5.7.3 1.8-.4 2.3-.4.3-.8.3-1.2.3-.4-.1-.8-.3-1.1-.7-1.1-1.6-3.4-2-5-.9-.8.5-1.8.3-2.3-.4s-.3-1.8.4-2.3" fill="#02243e"/></g><g transform="translate(36 18)"><circle cx="4.4" cy="4.7" fill="#d87703" r="3.5"/><circle cx="4.4" cy="3.7" fill="#1e4784" r="3.5"/><path d="m4.4.2c1.9 0 3.5 1.6 3.5 3.5s-1.6 3.5-3.5 3.5" fill="#00233f"/></g><circle cx="57" cy="12.8" fill="#f9a908" r="1"/><circle cx="59.6" cy="13.3" fill="#f9a908" r="1"/><circle cx="4.6" cy="16.3" fill="#f9a908" r="1"/><g transform="translate(10 25)"><path d="m16.4 2.8c0 1.2-3.5.7-7.8.7s-7.8.6-7.8-.7c0-1.2 3.5-2.2 7.8-2.2 4.4 0 7.8 1 7.8 2.2z" fill="#f9c55d"/><path d="m40.4 2.8c0 1.2-3.5.7-7.8.7s-7.8.6-7.8-.7c0-1.2 3.5-2.2 7.8-2.2s7.8 1 7.8 2.2z" fill="#f9a908"/></g><path d="m38 43.1c0 2.6-3.3 7.3-7.4 7.3s-7.4-4.7-7.4-7.3" fill="#f7910b"/><path d="m31.7 45.4c-.4 0-.8-.2-1-.6-.3-.6 0-1.2.5-1.5 2.4-1.1 3.3-2.1 3.3-2.6 0-.6-1.1-1.3-1.6-1.6-.3-.2-.6-.5-.6-.9s.1-.8.4-1c.9-.7 1.2-1.3 1.1-1.5-.1-.6-1.6-1.3-2.7-1.6-.6-.1-1-.7-.8-1.3.1-.6.7-1 1.3-.8.6.1 3.8 1 4.3 3.2.2.9-.1 1.8-.8 2.7.8.6 1.6 1.5 1.6 2.7 0 1.7-1.5 3.2-4.5 4.6-.2.2-.4.2-.5.2z" fill="#02243e"/><g transform="translate(45 24)"><path d="m5.1 1c1.8.5 3 1.9 3.2 3.5 0 .2.2.3.3.3.2.1.4.1.4-.1 1-1.3 2.8-1.9 4.5-1.4 2.2.6 3.6 2.7 3.1 4.7-.2.7-.6 1.3-1.2 1.8l-10 6.8-5.1-11c-.3-.7-.3-1.5-.1-2.2.4-1.9 2.6-3 4.9-2.4z" fill="#d81665"/><path d="m8.6 4.8c.2.1.4.1.4-.1 1-1.3 2.8-1.9 4.5-1.4 2.2.6 3.6 2.7 3.1 4.7-.2.7-.6 1.3-1.2 1.8l-10 6.8" fill="#b20b5f"/></g><g transform="translate(38 35)"><path d="m3.1 1.1c1 .3 1.7 1 1.7 1.9 0 .1.1.2.2.2h.2c.5-.7 1.5-1 2.5-.8 1.2.3 2 1.5 1.7 2.6-.1.4-.3.7-.7 1l-5.5 3.7-2.8-6c-.2-.4-.2-.8-.1-1.2.3-1.2 1.6-1.8 2.8-1.4z" fill="#d81665"/><path d="m5 3.2h.2c.5-.7 1.5-1 2.5-.8 1.2.3 2 1.5 1.7 2.6-.1.4-.3.7-.7 1l-5.5 3.7" fill="#b20b5f"/></g><g transform="translate(50 16)"><path d="m2.7.7c1-.1 1.9.4 2.3 1.3 0 .1.1.1.2.1s.2 0 .2-.1c.3-.8 1.1-1.5 2.1-1.5 1.3-.1 2.3.8 2.4 1.9 0 .4-.1.8-.3 1.2l-4 5.3-4.6-4.9c-.3-.3-.4-.7-.5-1.1-.1-1.1.9-2.1 2.2-2.2z" fill="#d81665"/><path d="m5.1 2.1c.1 0 .2 0 .2-.1.3-.8 1.1-1.5 2.1-1.5 1.3-.1 2.3.8 2.4 1.9 0 .4-.1.8-.3 1.2l-4 5.3" fill="#b20b5f"/></g></g></svg>

<?xml version="1.0" encoding="UTF-8"?>
<svg width="62px" height="58px" viewBox="0 0 62 58" version="1.1" xmlns="http://www.w3.org/2000/svg" xmlns:xlink="http://www.w3.org/1999/xlink">
    <!-- Generator: Sketch 43.1 (39012) - http://www.bohemiancoding.com/sketch -->
    <title>imgly_sticker_emoticons_kisses</title>
    <desc>Created with Sketch.</desc>
    <defs></defs>
    <g id="Page-1" stroke="none" stroke-width="1" fill="none" fill-rule="evenodd">
        <g id="kisses" fill-rule="nonzero">
            <g id="Group">
                <path d="M60.9,34.5 C60.9,47.5 49,58 30.6,58 C12.2,58 0.3,47.5 0.3,34.5 C0.3,21.5 12.2,2 30.6,2 C49,2 60.9,21.5 60.9,34.5 Z" id="Shape" fill="#F7910B"></path>
                <path d="M60.9,34.5 C60.9,47.5 49,54 30.6,54 C12.2,54 0.3,47.5 0.3,34.5 C0.3,21.5 12.2,0 30.6,0 C49,0 60.9,21.5 60.9,34.5 Z" id="Shape" fill="#F7910B"></path>
                <path d="M30.6,0 C49,0 60.9,21.5 60.9,34.5 C60.9,47.5 49,54 30.6,54" id="Shape" fill="#F9A908"></path>
                <path d="M60.9,34.5 C60.9,47.5 49,54 30.6,54 C12.2,54 0.3,47.5 0.3,34.5 C0.3,21.5 12.2,2 30.6,2 C49,2 60.9,21.5 60.9,34.5 Z" id="Shape" fill="#F9A908"></path>
                <path d="M0.3,34.5 C0.3,21.5 12.2,2 30.6,2" id="Shape" fill="#F9C55D"></path>
                <path d="M30.6,2 C49,2 60.9,21.5 60.9,34.5 C60.9,47.5 49,58 30.6,58" id="Shape" fill="#F7910B"></path>
                <path d="M30.6,2 C49,2 60.9,21.5 60.9,34.5" id="Shape" fill="#EA7103"></path>
                <g transform="translate(18.000000, 10.000000)" id="Shape">
                    <g>
                        <path d="M5.4,5.1 C4.8,5.8 4,4.5 2.6,3.3 C1.2,2.1 -0.2,1.5 0.4,0.9 C1,0.2 2.5,0.6 3.9,1.8 C5.3,2.9 6,4.4 5.4,5.1 Z" fill="#19BCA4"></path>
                        <path d="M5.4,5.1 C4.8,5.8 4,4.5 2.6,3.3 C1.2,2.1 -0.2,1.5 0.4,0.9" fill="#109DA0"></path>
                    </g>
                    <g transform="translate(18.000000, 1.000000)">
                        <path d="M0.7,2.9 C0.9,3.7 2.2,3 4,2.5 C5.8,2.1 7.3,2.1 7.1,1.3 C6.9,0.5 5.3,0.1 3.5,0.6 C1.7,1 0.5,2 0.7,2.9 Z" fill="#19BCA4"></path>
                        <path d="M0.7,2.9 C0.9,3.7 2.2,3 4,2.5 C5.8,2.1 7.3,2.1 7.1,1.3" fill="#109DA0"></path>
                    </g>
                </g>
                <circle id="Oval" fill="#F7910B" cx="8.9" cy="31.5" r="1"></circle>
                <circle id="Oval" fill="#F7910B" cx="4.4" cy="33.5" r="1.1"></circle>
                <circle id="Oval" fill="#F7910B" cx="7.4" cy="29.5" r="1"></circle>
                <circle id="Oval" fill="#F7910B" cx="12" cy="31.3" r="1"></circle>
                <circle id="Oval" fill="#F9A908" cx="51.2" cy="31.8" r="1"></circle>
                <circle id="Oval" fill="#F9A908" cx="53.7" cy="33.2" r="1"></circle>
                <circle id="Oval" fill="#F9A908" cx="48.4" cy="24.4" r="1"></circle>
                <circle id="Oval" fill="#F9A908" cx="47.9" cy="36" r="1.3"></circle>
                <circle id="Oval" fill="#F9A908" cx="55.1" cy="36.1" r="1"></circle>
                <circle id="Oval" fill="#F7910B" cx="7.9" cy="35.5" r="1"></circle>
                <circle id="Oval" fill="#F7910B" cx="8.7" cy="27.1" r="1"></circle>
                <circle id="Oval" fill="#F9A908" cx="3.4" cy="13.3" r="1.1"></circle>
                <circle id="Oval" fill="#F9A908" cx="6.6" cy="9.8" r="1"></circle>
                <circle id="Oval" fill="#F9A908" cx="57.8" cy="15.7" r="1"></circle>
                <g transform="translate(13.000000, 18.000000)">
                    <g transform="translate(0.000000, 1.000000)" id="Shape">
                        <path d="M9.5,6 C9.1,5.9 8.7,5.7 8.4,5.3 C7.3,3.7 5,3.3 3.4,4.4 C2.6,4.9 1.6,4.7 1.1,4 C0.6,3.3 0.8,2.2 1.5,1.7 C4.6,-0.5 8.9,0.3 11.1,3.5 C11.6,4.2 11.4,5.3 10.7,5.8 C10.3,6 9.9,6 9.5,6 Z" fill="#1E4784"></path>
                        <path d="M11.1,3.4 C11.6,4.1 11.4,5.2 10.7,5.7 C10.3,6 9.9,6 9.5,6 C9.1,5.9 8.7,5.7 8.4,5.3 C7.3,3.7 5,3.3 3.4,4.4 C2.6,4.9 1.6,4.7 1.1,4 C0.6,3.3 0.8,2.2 1.5,1.7" fill="#02243E"></path>
                    </g>
                    <g transform="translate(23.000000, 0.000000)">
                        <circle id="Oval" fill="#D87703" cx="4.4" cy="4.7" r="3.5"></circle>
                        <circle id="Oval" fill="#1E4784" cx="4.4" cy="3.7" r="3.5"></circle>
                        <path d="M4.4,0.2 C6.3,0.2 7.9,1.8 7.9,3.7 C7.9,5.6 6.3,7.2 4.4,7.2" id="Shape" fill="#00233F"></path>
                    </g>
                </g>
                <circle id="Oval" fill="#F9A908" cx="57" cy="12.8" r="1"></circle>
                <circle id="Oval" fill="#F9A908" cx="59.6" cy="13.3" r="1"></circle>
                <circle id="Oval" fill="#F9A908" cx="4.6" cy="16.3" r="1"></circle>
                <g transform="translate(10.000000, 25.000000)" id="Shape">
                    <path d="M16.4,2.8 C16.4,4 12.9,3.5 8.6,3.5 C4.3,3.5 0.8,4.1 0.8,2.8 C0.8,1.6 4.3,0.6 8.6,0.6 C13,0.6 16.4,1.6 16.4,2.8 Z" fill="#F9C55D"></path>
                    <path d="M40.4,2.8 C40.4,4 36.9,3.5 32.6,3.5 C28.3,3.5 24.8,4.1 24.8,2.8 C24.8,1.6 28.3,0.6 32.6,0.6 C36.9,0.6 40.4,1.6 40.4,2.8 Z" fill="#F9A908"></path>
                </g>
                <path d="M38,43.1 C38,45.7 34.7,50.4 30.6,50.4 C26.5,50.4 23.2,45.7 23.2,43.1" id="Shape" fill="#F7910B"></path>
            </g>
            <path d="M31.7,45.4 C31.3,45.4 30.9,45.2 30.7,44.8 C30.4,44.2 30.7,43.6 31.2,43.3 C33.6,42.2 34.5,41.2 34.5,40.7 C34.5,40.1 33.4,39.4 32.9,39.1 C32.6,38.9 32.3,38.6 32.3,38.2 C32.3,37.8 32.4,37.4 32.7,37.2 C33.6,36.5 33.9,35.9 33.8,35.7 C33.7,35.1 32.2,34.4 31.1,34.1 C30.5,34 30.1,33.4 30.3,32.8 C30.4,32.2 31,31.8 31.6,32 C32.2,32.1 35.4,33 35.9,35.2 C36.1,36.1 35.8,37 35.1,37.9 C35.9,38.5 36.7,39.4 36.7,40.6 C36.7,42.3 35.2,43.8 32.2,45.2 C32,45.4 31.8,45.4 31.7,45.4 Z" id="Shape" fill="#02243E"></path>
            <g id="Group" transform="translate(45.000000, 24.000000)">
                <path d="M5.1,1 C6.9,1.5 8.1,2.9 8.3,4.5 C8.3,4.7 8.5,4.8 8.6,4.8 C8.8,4.9 9,4.9 9,4.7 C10,3.4 11.8,2.8 13.5,3.3 C15.7,3.9 17.1,6 16.6,8 C16.4,8.7 16,9.3 15.4,9.8 L15.4,9.8 L15.4,9.8 L5.4,16.6 L0.3,5.6 L0.3,5.6 L0.3,5.6 C-2.69229083e-15,4.9 -2.69229083e-15,4.1 0.2,3.4 C0.6,1.5 2.8,0.4 5.1,1 Z" id="Shape" fill="#D81665"></path>
                <path d="M8.6,4.8 C8.8,4.9 9,4.9 9,4.7 C10,3.4 11.8,2.8 13.5,3.3 C15.7,3.9 17.1,6 16.6,8 C16.4,8.7 16,9.3 15.4,9.8 L15.4,9.8 L15.4,9.8 L5.4,16.6" id="Shape" fill="#B20B5F"></path>
            </g>
            <g id="Group" transform="translate(38.000000, 35.000000)">
                <path d="M3.1,1.1 C4.1,1.4 4.8,2.1 4.8,3 C4.8,3.1 4.9,3.2 5,3.2 L5.2,3.2 C5.7,2.5 6.7,2.2 7.7,2.4 C8.9,2.7 9.7,3.9 9.4,5 C9.3,5.4 9.1,5.7 8.7,6 L8.7,6 L8.7,6 L3.2,9.7 L0.4,3.7 L0.4,3.7 L0.4,3.7 C0.2,3.3 0.2,2.9 0.3,2.5 C0.6,1.3 1.9,0.7 3.1,1.1 Z" id="Shape" fill="#D81665"></path>
                <path d="M5,3.2 L5.2,3.2 C5.7,2.5 6.7,2.2 7.7,2.4 C8.9,2.7 9.7,3.9 9.4,5 C9.3,5.4 9.1,5.7 8.7,6 L8.7,6 L8.7,6 L3.2,9.7" id="Shape" fill="#B20B5F"></path>
            </g>
            <g id="Group" transform="translate(50.000000, 16.000000)">
                <path d="M2.7,0.7 C3.7,0.6 4.6,1.1 5,2 C5,2.1 5.1,2.1 5.2,2.1 C5.3,2.1 5.4,2.1 5.4,2 C5.7,1.2 6.5,0.5 7.5,0.5 C8.8,0.4 9.8,1.3 9.9,2.4 C9.9,2.8 9.8,3.2 9.6,3.6 L9.6,3.6 L9.6,3.6 L5.6,8.9 L1,4 L1,4 L1,4 C0.7,3.7 0.6,3.3 0.5,2.9 C0.4,1.8 1.4,0.8 2.7,0.7 Z" id="Shape" fill="#D81665"></path>
                <path d="M5.1,2.1 C5.2,2.1 5.3,2.1 5.3,2 C5.6,1.2 6.4,0.5 7.4,0.5 C8.7,0.4 9.7,1.3 9.8,2.4 C9.8,2.8 9.7,3.2 9.5,3.6 L9.5,3.6 L9.5,3.6 L5.5,8.9" id="Shape" fill="#B20B5F"></path>
            </g>
        </g>
    </g>
</svg>
